svg/aws-ec2-d2.svg

<?xml version="1.0" encoding="UTF-8"?>
<svg xmlns="http://www.w3.org/2000/svg" xmlns:xlink="http://www.w3.org/1999/xlink" width="32" height="32" viewBox="0 0 32 32">
<path fill-rule="evenodd" fill="rgb(83.137255%, 35.686275%, 2.745098%)" fill-opacity="1" d="M 21.3125 19.21875 L 16.925781 19.21875 L 16.925781 18.378906 C 17.78125 17.507812 18.414062 16.839844 18.820312 16.371094 C 19.222656 15.90625 19.503906 15.53125 19.65625 15.242188 C 19.8125 14.957031 19.890625 14.691406 19.890625 14.449219 C 19.890625 14.164062 19.808594 13.941406 19.640625 13.785156 C 19.472656 13.625 19.234375 13.542969 18.929688 13.542969 C 18.628906 13.550781 18.335938 13.613281 18.058594 13.726562 C 17.722656 13.859375 17.398438 14.03125 17.101562 14.242188 L 17.101562 13.328125 C 17.695312 12.84375 18.351562 12.601562 19.070312 12.601562 C 19.460938 12.601562 19.800781 12.671875 20.09375 12.8125 C 20.382812 12.953125 20.609375 13.152344 20.773438 13.414062 C 20.9375 13.675781 21.019531 13.984375 21.019531 14.347656 C 21.019531 14.695312 20.925781 15.046875 20.734375 15.40625 C 20.542969 15.765625 20.234375 16.171875 19.808594 16.628906 C 19.246094 17.21875 18.660156 17.789062 18.050781 18.332031 L 21.3125 18.332031 Z M 11.828125 18.324219 L 11.828125 13.648438 L 12.769531 13.648438 C 14.058594 13.648438 14.703125 14.390625 14.703125 15.878906 L 14.703125 16.082031 C 14.703125 17.574219 14.058594 18.324219 12.769531 18.324219 Z M 15.089844 18.378906 C 15.601562 17.820312 15.859375 17.015625 15.859375 15.96875 C 15.859375 14.929688 15.605469 14.136719 15.097656 13.582031 C 14.59375 13.027344 13.859375 12.75 12.902344 12.75 L 10.6875 12.75 L 10.6875 19.21875 L 12.890625 19.21875 C 13.84375 19.21875 14.574219 18.9375 15.089844 18.378906 M 6 26 L 26 26 L 26 6 L 6 6 Z M 30.667969 8.667969 L 30.667969 7.332031 L 27.332031 7.332031 L 27.332031 5.332031 C 27.332031 4.964844 27.035156 4.667969 26.667969 4.667969 L 24.667969 4.667969 L 24.667969 1.332031 L 23.332031 1.332031 L 23.332031 4.667969 L 20.667969 4.667969 L 20.667969 1.332031 L 19.332031 1.332031 L 19.332031 4.667969 L 16.667969 4.667969 L 16.667969 1.332031 L 15.332031 1.332031 L 15.332031 4.667969 L 12.667969 4.667969 L 12.667969 1.332031 L 11.332031 1.332031 L 11.332031 4.667969 L 8.667969 4.667969 L 8.667969 1.332031 L 7.332031 1.332031 L 7.332031 4.667969 L 5.332031 4.667969 C 4.964844 4.667969 4.667969 4.964844 4.667969 5.332031 L 4.667969 7.332031 L 1.332031 7.332031 L 1.332031 8.667969 L 4.667969 8.667969 L 4.667969 11.332031 L 1.332031 11.332031 L 1.332031 12.667969 L 4.667969 12.667969 L 4.667969 15.332031 L 1.332031 15.332031 L 1.332031 16.667969 L 4.667969 16.667969 L 4.667969 19.332031 L 1.332031 19.332031 L 1.332031 20.667969 L 4.667969 20.667969 L 4.667969 23.332031 L 1.332031 23.332031 L 1.332031 24.667969 L 4.667969 24.667969 L 4.667969 26.667969 C 4.667969 27.035156 4.964844 27.332031 5.332031 27.332031 L 7.332031 27.332031 L 7.332031 30.667969 L 8.667969 30.667969 L 8.667969 27.332031 L 11.332031 27.332031 L 11.332031 30.667969 L 12.667969 30.667969 L 12.667969 27.332031 L 15.332031 27.332031 L 15.332031 30.667969 L 16.667969 30.667969 L 16.667969 27.332031 L 19.332031 27.332031 L 19.332031 30.667969 L 20.667969 30.667969 L 20.667969 27.332031 L 23.332031 27.332031 L 23.332031 30.667969 L 24.667969 30.667969 L 24.667969 27.332031 L 26.667969 27.332031 C 27.035156 27.332031 27.332031 27.035156 27.332031 26.667969 L 27.332031 24.667969 L 30.667969 24.667969 L 30.667969 23.332031 L 27.332031 23.332031 L 27.332031 20.667969 L 30.667969 20.667969 L 30.667969 19.332031 L 27.332031 19.332031 L 27.332031 16.667969 L 30.667969 16.667969 L 30.667969 15.332031 L 27.332031 15.332031 L 27.332031 12.667969 L 30.667969 12.667969 L 30.667969 11.332031 L 27.332031 11.332031 L 27.332031 8.667969 Z M 30.667969 8.667969 "/>
</svg>

<svg role="img" viewBox="0 0 32 32" height="32" width="32" xmlns="http://www.w3.org/2000/svg"><path d="M21.313 19.219h-4.387v-.84c.855-.871 1.488-1.54 1.894-2.008.403-.465.684-.84.836-1.129.157-.285.235-.55.235-.793 0-.285-.082-.508-.25-.664-.168-.16-.407-.242-.711-.242-.301.008-.594.07-.871.184-.336.132-.66.304-.957.515v-.914c.593-.484 1.25-.726 1.968-.726.39 0 .73.07 1.024.21.289.141.515.34.68.602.163.262.246.57.246.934 0 .347-.094.699-.286 1.058-.191.36-.5.766-.925 1.223-.563.59-1.149 1.16-1.758 1.703h3.262Zm-9.485-.895v-4.676h.942c1.289 0 1.933.743 1.933 2.23v.204c0 1.492-.644 2.242-1.933 2.242Zm3.262.055c.512-.559.77-1.363.77-2.41 0-1.04-.255-1.832-.762-2.387-.504-.555-1.239-.832-2.196-.832h-2.214v6.469h2.203c.953 0 1.683-.282 2.199-.84M6 26h20V6H6ZM30.668 8.668V7.332h-3.336v-2a.664.664 0 0 0-.664-.664h-2V1.332h-1.336v3.336h-2.664V1.332h-1.336v3.336h-2.664V1.332h-1.336v3.336h-2.664V1.332h-1.336v3.336H8.668V1.332H7.332v3.336h-2a.664.664 0 0 0-.664.664v2H1.332v1.336h3.336v2.664H1.332v1.336h3.336v2.664H1.332v1.336h3.336v2.664H1.332v1.336h3.336v2.664H1.332v1.336h3.336v2c0 .367.297.664.664.664h2v3.336h1.336v-3.336h2.664v3.336h1.336v-3.336h2.664v3.336h1.336v-3.336h2.664v3.336h1.336v-3.336h2.664v3.336h1.336v-3.336h2a.664.664 0 0 0 .664-.664v-2h3.336v-1.336h-3.336v-2.664h3.336v-1.336h-3.336v-2.664h3.336v-1.336h-3.336v-2.664h3.336v-1.336h-3.336V8.668Zm0 0" fill="rgb(83.137255%, 35.686275%, 2.745098%)" fill-rule="evenodd"/></svg>
